!!!!SEGMENT:Ayameyukata.krn
!!!OTL: あやめ浴衣
!!!OPR:Eiga Banso Kyokusyu,jidai-geki,kouhen
!!!YOY:1928
!!!ONB:Yoruno_rantou
**kern	**dynam
*clefG2	*
*k[f#]	*
*G:	*
*M2/4	*
=1	=1
8bbL	f
8bbJ	.
8eeL	.
8aaJ	.
=2	=2
8bbL	.
8bbJ	.
8eeL	.
8aaJ	.
=3	=3
8bbL	.
8aaJ	.
8eeL	.
8ffnJ	.
=4	=4
8ffnL	.
8ffJ	.
4ee	.
=5	=5
8bL	.
8ee	.
8ff#X	.
8ggJ	.
=6	=6
8bbL	.
8gg	.
8ff#	.
8ggJ	.
=7	=7
8eeL	.
8ee	.
8ff#	.
8eeJ	.
=8	=8
8ccL	.
8ee	.
8cc	.
8bJ	.
=9	=9
8ffn	.
4ff	.
8r	.
=10	=10
4ffn	.
8r	.
8ff	.
=11	=11
4ffn	.
4ff	.
=12	=12
8r	.
8ffn	.
4ff	.
=13	=13
4ffn	.
4r	.
=14	=14
4ffn	.
4ee	.
=15	=15
4dd	.
4ee	.
=16	=16
4ffn	.
4ee	.
=17	=17
4dd	.
4ee	.
=18	=18
4cc	.
4ee	.
=19	=19
4cc	.
4b	.
=20	=20
8BL	.
8a	.
8a	.
8aJ	.
=21	=21
8bL	.
8bJ	.
4r	.
=22	=22
8ccL	.
8ee	.
8ff#	.
8eeJ	.
=23	=23
8ccL	.
8ee	.
8cc	.
8bJ	.
=24	=24
8BL	.
8a	.
8a	.
8aJ	.
=25	=25
8bL	.
8b	.
8cc	.
8ccJ	.
=26	=26
8r	.
8cc	.
8r	.
8cc	.
=27	=27
8r	.
8ccL	.
8a	.
8aJ	.
=28	=28
8bL	.
8aJ	.
8bL	.
8aJ	.
=29||	=29||
*M3/4	*
8fnL	.
8eJ	.
8dL	.
8dJ	.
8eL	.
8dJ	.
=30||	=30||
*M2/4	*
8eL	.
8aJ	.
8fnL	.
8fJ	.
=31	=31
8fnL	.
8eJ	.
8eL	.
8cJ	.
=32	=32
4B	.
4r	.
=33	=33
4d 4dd	.
4e 4ee	.
=34	=34
4d 4dd	.
8eL 8ee	.
8eJ 8ee	.
=35	=35
8eL 8ee	.
8eJ 8ee	.
8eL 8ee	.
8eJ 8ee	.
=36	=36
4e 4ee	.
4r	.
=37	=37
8eeL	.
8ccJ	.
8eeL	.
8ccJ	.
=38	=38
8eeL	.
8ccJ	.
8eeL	.
8ccJ	.
=39	=39
8eeL	.
8ff#J	.
8eeL	.
8ccJ	.
=40	=40
4b	.
4r	.
=41	=41
8eL	.
8ffnJ	.
8ffL	.
8ffJ	.
=42	=42
8ffnL	.
8ffJ	.
8ffL	.
8ffJ	.
=43	=43
8r	.
8ee	.
8eeL	.
8eeJ	.
=44	=44
4ee	.
4r	.
=45	=45
4b	.
4ee	.
=46	=46
4b	.
4r	.
=47	=47
8BL	.
8aJ	.
8aL	.
8aJ	.
=48	=48
4b	.
4r	.
=49	=49
8eL	.
8ccJ	.
8ccL	.
8ccJ	.
=50	=50
4b	.
8ccL	.
8bJ	.
=51	=51
8BL	.
8aJ	.
8aL	.
8aJ	.
=52	=52
4b	.
4r	.
=53	=53
8BL	.
8ccJ	.
8ccL	.
8bJ	.
=54	=54
8BL	.
8ccJ	.
8ccL	.
8bJ	.
=55	=55
8BL	.
8aJ	.
8aL	.
8aJ	.
=56	=56
4b	.
4cc	.
=57	=57
4ee	.
4cc	.
=58	=58
4b	.
4cc	.
=59	=59
4ee	.
4cc	.
=60	=60
4b	.
4cc	.
=61	=61
8aL	.
8bJ	.
8ccL	.
8bJ	.
=62	=62
8aL	.
8bJ	.
8aL	.
8bJ	.
=63	=63
8aL	.
8eJ	.
8eL	.
8cJ	.
=64	=64
4B	.
8fnL	.
8eJ	.
=65	=65
8aL	.
8bJ	.
8ccL	.
8bJ	.
=66	=66
8aL	.
8bJ	.
8aL	.
8fnJ	.
=67	=67
4a	.
4b	.
=68	=68
8gL	.
8gJ	.
8gL	.
8gJ	.
=69	=69
8gL	.
8f#J	.
4r	.
=70	=70
8BL	.
8BJ	.
8r	.
8c	.
=71	=71
4e	.
8fnL	.
8eJ	.
=72	=72
8BL	.
8dJ	.
4e	.
=73	=73
4B	.
4r	.
==	==
*-	*-
!!!ENC: Yukiko Yoden
!!!END: 2023/06/11
